X: 012
T: Ralph's Ramble to London
B: 204 Favourite Country Dances
N: Published by Straight & Skillern, London ca.1775
F: http://imslp.org/wiki/204_Favourite_Country_Dances_(Various) p.6 #12
Z: 2014 John Chambers <jc:trillian.mit.edu>
N: The right edge is clipped, so I've just guessed the last note or letter in each line.
M: C
L: 1/8
K: D
%  - - - - - - - - - - - - - - - - - - - - - - - - -
A |\
defg afed | egBe dcBA |\
defg afed | Bdce d3 :|\
|: e |\
cAAc (3(efg) fe | fddf (3(fga) gf |
gfed cBAG | FdBg Te3A |\
defg afed | egBe dcBA |\
defg afed | Bdce d3 :|
%  - - - - - - - - - - - - - - - - - - - - - - - - -
%%begintext align
%% Hands 3 round with the 2d Wo. the same
%% with the 2d Man gallop down & cast
%% off right and left
%%endtext

%%sep 1 1 500
%%sep 1 1 500
